X: 35465
T: Rowsome's
R: reel
M: 4/4
K: Adorian
G|A2 AG A3 F|GEAF GEEG|A3 c BGG2|BdBG c3 B|
GAAG A3 F|GEAF GEEG|A3 c BGG2|1 BdBG cAB:|2 BdBG c3||
d|e3 d efg2|G3 F GAEG|A3 c BGG2|BdBG c3 d|
e3 d efg2|G3 F GAEG|A3 c BGG2|BdBG cAB||

